X:8199
T:Johnny Macgill
R:Jig
O:England
M:6/8
N:See 21
A:Lancashire
B:Winder
K:Em
g | dBB BAB | dBB B2g | dBB BAB | GEE E2g | \
dBB BAB | dBB BAG | A2A BAB | GEE E2 :|*
 |:f | g2g aga | bge dBG | g2g aga | bge e2g | \
bgb afa | gef g2e | dBB BAB | GEE E2 :|**
